X:32
T:Malenky tanets
O:russia
M:2/4
L:1/8
Q:1/4=
K:Am
V:1
"Am" A/B/c/d/ ee |"Dm" d/e/f "Am" e2 |"E7" d/e/d/B/ "Am" c/d/c/A/ |"E7" B/c/B/^G/ "Am" AE |
A/B/c/d/ ee |"Dm" d/e/f "Am" e2 |"E7" d/e/d/B/ "Am" c/d/c/A/ |"E7" B/A/^G/B/ "Am" A2 :| |:
"C" g3/2 f/ec |"F" a3/2 g/fe |"G7" de/f/ ed |"C" ee "E" e2 |
"Am" ce ae |"Dm" f/g/f/e/ dd |"E7" b3/2 a/^g/a/b/ ^g/|"Am" a/b/a/ ^g/a2 :| |:
"Am" EE {_e/}e3/2 d/|c~B A2 |"E7" ^G/A/B/^G/ E^G |"Am" A"G" G "F" F"E" E |
"Am" EE {_e/}e3/2 d/|c~B A2 |"E7" ^G/A/B/^G/ E^G |"Am" .A2 .A2 :| |:
"A7" aa ae/g/ |"Dm" fe dc |"E7" BB {f/}e3/2 d/|1 "Am" c/d/"E7" c/ B/"Am" A2 :|2
"Am" c"E7" B "Am" A2 |]
